X:1
T:Haughs of Delvin, The
T:Haughs of Delvin, The
T:Nathaniel Gow (1863-1831)
C:Nathaniel Gow (1863-1831)
L:1/8
M:4/4
K:Emin
V:1 treble 
V:1
 B(3A/G/F/ EB GEBE | B(3A/G/F/ EG FDAF | B(3A/G/F/ EB GEBG | (B/^c/d) (B/c/d) FDAF | %4
 B(3A/G/F/ EB GEBE | B(3A/G/F/ EG FDAF | B(3A/G/F/ EB GEBG | (B/^c/d) (B/c/d) FDAF || %8
{f} e^d/e/ Bg eBge | (f/e/^d/)e/ Bg f=daf | e^d/e/ Bg eBge | (fd) (BG) (FD)AF |{f} e^d/e/ Bg eBge | %13
 (f/e/^d/)e/ Bg f=daf | e/B/e/g/ (b/a/g/).f/ (g/f/e/).^d/ (e/=d/c/).B/ | %15
 (c/B/A/G/) (F/G/A/G/) FDAF || %16

